lg/appsignal-icon.svg

<svg viewBox="0 0 256 188" version="1.1" xmlns="http://www.w3.org/2000/svg" preserveAspectRatio="xMidYMid" height="1em" width="1em">
  <g>
    <path d="M224.039296,43.8018829 C205.037522,43.8018829 191.449857,60.5332242 177.443035,79.1857006 C168.745531,39.5753855 159.104926,0 128.366762,0 C97.6285987,0 87.9530632,39.5753855 79.1158412,79.2206304 C65.1439487,60.5332242 51.5562833,43.8018829 32.5545095,43.8018829 C20.4688225,43.8018829 0,52.0103698 0,82.8183927 L0,138.705963 C0,168.92018 16.1375358,176.325283 25.8130714,178.875153 L25.8130714,178.875153 C42.5094829,183.20644 82.7136035,187.258289 127.982535,187.258289 C173.251467,187.258289 213.455587,183.20644 230.151999,178.875153 L230.151999,178.875153 C239.827534,176.325283 256,168.92018 256,138.705963 L256,82.8183927 C256,52.0103698 235.531178,43.8018829 223.445491,43.8018829 M128.366762,17.4648656 C146.774731,17.4648656 153.795606,53.7917861 163.575931,97.3840906 C152.852504,110.587529 141.465411,121.241097 128.366762,121.241097 C115.268113,121.241097 103.91595,110.587529 93.1575931,97.3840906 C102.309183,56.6210943 109.364988,17.4648656 128.366762,17.4648656 M17.7443035,138.880611 L17.7443035,82.9930413 C17.7443035,63.5371811 28.2232228,61.4413972 32.8339473,61.4413972 C46.2469641,61.4413972 60.7777323,83.7964252 74.3653977,101.750307 C64.6549325,142.478374 54.3855915,167.278483 30.144358,162.178742 C23.8220767,160.467185 17.8840224,156.450266 17.8840224,139.05526 M65.4583163,167.383272 C76.1817438,155.716742 82.9231819,137.518352 88.2674308,118.23714 C99.4798745,130.00846 112.438805,138.880611 128.506481,138.880611 C144.574157,138.880611 157.498158,130.00846 168.745531,118.23714 C173.950061,137.518352 180.796289,155.716742 191.519716,167.383272 C172.762451,169.094829 150.197844,170.142721 128.6462,170.142721 C107.094556,170.142721 84.3553009,169.094829 65.5980352,167.383272 M239.268659,139.05526 C239.268659,156.520126 233.330604,160.467185 227.008323,162.178742 C202.73216,167.313412 192.497749,142.478374 182.787283,101.750307 C196.514668,83.7964252 210.731068,61.4413972 224.318734,61.4413972 C228.859599,61.4413972 239.408378,63.5371811 239.408378,82.9930413 L239.268659,139.05526 Z" fill="#21375A" fill-rule="nonzero"/>
  </g>
</svg>

<svg viewBox="0 0 256 188" xmlns="http://www.w3.org/2000/svg" preserveAspectRatio="xMidYMid" height="1em" width="1em">
  <path d="M224.04 43.802c-19.002 0-32.59 16.731-46.597 35.384C168.746 39.576 159.105 0 128.367 0S87.953 39.575 79.116 79.22c-13.972-18.687-27.56-35.418-46.561-35.418C20.469 43.802 0 52.01 0 82.818v55.888c0 30.214 16.138 37.62 25.813 40.17 16.696 4.33 56.9 8.382 102.17 8.382 45.268 0 85.473-4.052 102.169-8.383 9.676-2.55 25.848-9.955 25.848-40.169V82.818c0-30.808-20.469-39.016-32.555-39.016m-95.078-26.337c18.408 0 25.429 36.327 35.209 79.92-10.723 13.203-22.11 23.856-35.21 23.856-13.098 0-24.45-10.653-35.208-23.857 9.151-40.763 16.207-79.92 35.209-79.92M17.744 138.882V82.993c0-19.456 10.48-21.552 15.09-21.552 13.413 0 27.944 22.355 41.531 40.31-9.71 40.727-19.98 65.527-44.22 60.428-6.323-1.712-12.261-5.729-12.261-23.124m47.574 28.328c10.724-11.666 17.465-29.865 22.81-49.146 11.212 11.771 24.17 20.644 40.238 20.644 16.068 0 28.992-8.873 40.24-20.644 5.204 19.281 12.05 37.48 22.774 49.146-18.758 1.712-41.322 2.76-62.874 2.76-21.551 0-44.29-1.048-63.048-2.76m173.67-28.328c0 17.465-5.937 21.412-12.26 23.124-24.276 5.134-34.51-19.7-44.22-60.429 13.727-17.954 27.943-40.309 41.53-40.309 4.542 0 15.09 2.096 15.09 21.552l-.14 56.062Z" fill="#21375A"/>
</svg>
